X:3601
T:Learned Men. HSJJ.081
O:england
M:2/4
L:1/8
Q:300
S:HSJ Jackson,Wyresdale,Lancs.1823
R:Misc.
A:Lancashire
H:1823
K:D
FAd2|FAd2|cdec|fddA|FAd2|FAd2|cdec|d2z2|
|eedc|eedc|ddcB|ABcd|eedc|eedc|BcdB|A3"DC"G|]
